icons/lines/calendar-add.svg

<svg xmlns="http://www.w3.org/2000/svg" width="24" height="24" viewBox="0 0 24 24" fill="none" stroke="currentColor" stroke-width="2" stroke-linecap="round" stroke-linejoin="round" >
  <path d="M8 2V5" stroke-miterlimit="10"/>
  <path d="M16 2V5" stroke-miterlimit="10"/>
  <path d="M3.5 9.08997H20.5" stroke-miterlimit="10"/>
  <path d="M18 23C20.2091 23 22 21.2091 22 19C22 16.7909 20.2091 15 18 15C15.7909 15 14 16.7909 14 19C14 21.2091 15.7909 23 18 23Z" stroke-miterlimit="10"/>
  <path d="M19.4898 19.0499H16.5098" stroke-miterlimit="10"/>
  <path d="M18 17.59V20.58" stroke-miterlimit="10"/>
  <path d="M21 8.5V16.36C20.27 15.53 19.2 15 18 15C15.79 15 14 16.79 14 19C14 19.75 14.21 20.46 14.58 21.06C14.79 21.42 15.06 21.74 15.37 22H8C4.5 22 3 20 3 17V8.5C3 5.5 4.5 3.5 8 3.5H16C19.5 3.5 21 5.5 21 8.5Z" stroke-miterlimit="10"/>
  <path d="M11.9955 13.7H12.0045"/>
  <path d="M8.29431 13.7H8.30329"/>
  <path d="M8.29431 16.7H8.30329"/>
  </svg>

<svg xmlns="http://www.w3.org/2000/svg" width="24" height="24" viewBox="0 0 24 24" fill="none" stroke="currentColor" stroke-width="2" stroke-linecap="round" stroke-linejoin="round">
  <path d="M11.996 13.7h.01" />
  <path d="M16 2v3" />
  <path d="M18 17.59v2.99" />
  <path d="M19.49 19.05h-2.98" />
  <path d="M21 16.36A4 4 0 0 0 14 19a4 4 0 0 0 .58 2.06 3.6 3.6 0 0 0 .79.94H8c-3.5 0-5-2-5-5V8.5c0-3 1.5-5 5-5h8c3.5 0 5 2 5 5z" />
  <path d="M3.5 9.09h17" />
  <path d="M8 2v3" />
  <path d="M8.294 13.7h.01" />
  <path d="M8.294 16.7h.01" />
  <circle cx="18" cy="19" r="4" />
</svg>
